assets/images/skills/karmal-skill_wc.svg

<?xml version="1.0" encoding="UTF-8" standalone="no"?>
<svg
   xmlns:dc="http://purl.org/dc/elements/1.1/"
   xmlns:cc="http://creativecommons.org/ns#"
   xmlns:rdf="http://www.w3.org/1999/02/22-rdf-syntax-ns#"
   xmlns:svg="http://www.w3.org/2000/svg"
   xmlns="http://www.w3.org/2000/svg"
   xmlns:xlink="http://www.w3.org/1999/xlink"
   xmlns:sodipodi="http://sodipodi.sourceforge.net/DTD/sodipodi-0.dtd"
   xmlns:inkscape="http://www.inkscape.org/namespaces/inkscape"
   viewBox="0 0 512 512"
   width="512"
   height="512"
   version="1.1"
   id="svg5"
   sodipodi:docname="liturgy_wc.svg"
   inkscape:version="1.0 (4035a4fb49, 2020-05-01)">
  <title
     id="title862">Devine: Liturgy</title>
  <metadata
     id="metadata11">
    <rdf:RDF>
      <cc:Work
         rdf:about="">
        <dc:format>image/svg+xml</dc:format>
        <dc:type
           rdf:resource="http://purl.org/dc/dcmitype/StillImage" />
        <dc:title>Devine: Liturgy</dc:title>
        <cc:license
           rdf:resource="http://creativecommons.org/licenses/by-sa/4.0/" />
        <dc:date>2022.02.07</dc:date>
        <dc:creator>
          <cc:Agent>
            <dc:title>Streuner²</dc:title>
          </cc:Agent>
        </dc:creator>
        <dc:contributor>
          <cc:Agent>
            <dc:title>completely selfmade</dc:title>
          </cc:Agent>
        </dc:contributor>
      </cc:Work>
      <cc:License
         rdf:about="http://creativecommons.org/licenses/by-sa/4.0/">
        <cc:permits
           rdf:resource="http://creativecommons.org/ns#Reproduction" />
        <cc:permits
           rdf:resource="http://creativecommons.org/ns#Distribution" />
        <cc:requires
           rdf:resource="http://creativecommons.org/ns#Notice" />
        <cc:requires
           rdf:resource="http://creativecommons.org/ns#Attribution" />
        <cc:permits
           rdf:resource="http://creativecommons.org/ns#DerivativeWorks" />
        <cc:requires
           rdf:resource="http://creativecommons.org/ns#ShareAlike" />
      </cc:License>
    </rdf:RDF>
  </metadata>
  <defs
     id="defs9">
    <linearGradient
       id="linearGradient892"
       inkscape:collect="always">
      <stop
         id="stop888"
         offset="0"
         style="stop-color:#fde1fc;stop-opacity:1" />
      <stop
         id="stop890"
         offset="1"
         style="stop-color:#8e5d6f;stop-opacity:1" />
    </linearGradient>
    <linearGradient
       id="linearGradient856"
       inkscape:collect="always">
      <stop
         id="stop852"
         offset="0"
         style="stop-color:#8e5d6f;stop-opacity:1" />
      <stop
         style="stop-color:#8e5d6f;stop-opacity:1"
         offset="0.06481092"
         id="stop860" />
      <stop
         id="stop854"
         offset="1"
         style="stop-color:#fde1fc;stop-opacity:1" />
    </linearGradient>
    <radialGradient
       gradientUnits="userSpaceOnUse"
       gradientTransform="matrix(1,0,0,0.99977178,0,0.05842511)"
       r="183.43457"
       fy="256.00003"
       fx="256.00098"
       cy="256.00003"
       cx="256.00098"
       id="radialGradient894"
       xlink:href="#linearGradient892"
       inkscape:collect="always" />
    <radialGradient
       r="226.11719"
       fy="256"
       fx="256"
       cy="256"
       cx="256"
       gradientTransform="translate(0,-1.0302622e-4)"
       gradientUnits="userSpaceOnUse"
       id="radialGradient896"
       xlink:href="#linearGradient856"
       inkscape:collect="always" />
  </defs>
  <sodipodi:namedview
     guideopacity="0.49803922"
     guidecolor="#00ff00"
     inkscape:guide-bbox="true"
     showguides="true"
     inkscape:showpageshadow="false"
     borderlayer="false"
     inkscape:document-rotation="0"
     pagecolor="#323232"
     bordercolor="#666666"
     borderopacity="1"
     objecttolerance="10"
     gridtolerance="10"
     guidetolerance="10"
     inkscape:pageopacity="0.61960784"
     inkscape:pageshadow="2"
     inkscape:window-width="3840"
     inkscape:window-height="2066"
     id="namedview7"
     showgrid="false"
     inkscape:zoom="1.8732344"
     inkscape:cx="-4.9573158"
     inkscape:cy="180.0939"
     inkscape:window-x="-11"
     inkscape:window-y="-11"
     inkscape:window-maximized="1"
     inkscape:current-layer="svg5">
    <sodipodi:guide
       id="guide869"
       orientation="-1,0"
       position="256,256"
       inkscape:label=""
       inkscape:locked="false"
       inkscape:color="rgb(0,255,0)" />
    <sodipodi:guide
       id="guide905"
       orientation="0,1"
       position="256,256"
       inkscape:label=""
       inkscape:locked="false"
       inkscape:color="rgb(0,255,0)" />
  </sodipodi:namedview>
  <filter
     id="shadow">
    <feDropShadow
       dx="6"
       dy="12"
       stdDeviation="6" />
  </filter>
  <path
     sodipodi:nodetypes="cccccccccccccccccccccccccccccccccccccccccccccccc"
     d="m 231.69141,72.607328 c -16.21687,2.122885 -31.76603,6.344234 -46.37305,12.376953 l 35.45508,39.554689 z m 48.61718,0 10.91602,51.929692 35.45508,-39.554692 c -14.6063,-6.032079 -30.15525,-10.252256 -46.3711,-12.375 z M 143.24023,109.29288 c -12.7368,9.79543 -24.15728,21.20962 -33.95703,33.94141 l 50.48047,16.52734 z m 225.52149,0.002 -16.52344,50.4668 50.47852,-16.52734 c -9.79926,-12.73085 -21.21918,-24.14454 -33.95508,-33.93946 z m 58.2793,76.00391 -39.57813,35.47656 51.97266,10.92578 c -2.12499,-16.22669 -6.35191,-31.78667 -12.39453,-46.40234 z m -342.08008,0.002 c -6.0419,14.61461 -10.26959,30.17306 -12.39453,46.39844 l 51.96875,-10.92383 z m 354.47461,94.99805 -51.97266,10.92578 39.57813,35.47656 c 6.04262,-14.61567 10.26954,-30.17565 12.39453,-46.40234 z m -366.86914,0.002 c 2.12494,16.22538 6.35263,31.78383 12.39453,46.39844 l 39.57617,-35.47266 z m 87.19531,71.93555 -50.47852,16.52734 c 9.7994,12.73156 21.21874,24.14604 33.95508,33.94141 z m 192.47656,0.002 16.52344,50.4668 c 12.73631,-9.79523 24.15561,-21.21007 33.95508,-33.94141 z m -61.01367,35.22461 -10.91602,51.92969 c 16.21585,-2.12275 31.7648,-6.34292 46.3711,-12.375 z m -70.44922,0.002 -35.45508,39.55274 c 14.60634,6.0322 30.1551,10.25223 46.3711,12.375 z"
     style="color:#000000;font-style:normal;font-variant:normal;font-weight:normal;font-stretch:normal;font-size:medium;line-height:normal;font-family:sans-serif;font-variant-ligatures:normal;font-variant-position:normal;font-variant-caps:normal;font-variant-numeric:normal;font-variant-alternates:normal;font-variant-east-asian:normal;font-feature-settings:normal;font-variation-settings:normal;text-indent:0;text-align:start;text-decoration:none;text-decoration-line:none;text-decoration-style:solid;text-decoration-color:#000000;letter-spacing:normal;word-spacing:normal;text-transform:none;writing-mode:lr-tb;direction:ltr;text-orientation:mixed;dominant-baseline:auto;baseline-shift:baseline;text-anchor:start;white-space:normal;shape-padding:0;shape-margin:0;inline-size:0;clip-rule:nonzero;display:inline;overflow:visible;visibility:visible;isolation:auto;mix-blend-mode:normal;color-interpolation:sRGB;color-interpolation-filters:linearRGB;solid-color:#000000;solid-opacity:1;vector-effect:none;fill:url(#radialGradient894);fill-opacity:1;fill-rule:evenodd;stroke:none;stroke-width:15.0001;stroke-linecap:round;stroke-linejoin:round;stroke-miterlimit:4;stroke-dasharray:none;stroke-dashoffset:0;stroke-opacity:1;paint-order:normal;color-rendering:auto;image-rendering:auto;shape-rendering:auto;text-rendering:auto;enable-background:accumulate;stop-color:#000000"
     id="path841" />
  <path
     d="M 256 29.882812 L 231.34961 147.14258 C 239.28256 145.34838 247.53224 144.39648 256 144.39648 C 264.46892 144.39648 272.71758 145.34956 280.65039 147.14453 L 256 29.882812 z M 142.94141 60.177734 L 180.24219 174.10938 C 192.3098 162.94172 206.83728 154.39761 222.91602 149.40039 L 142.94141 60.177734 z M 369.05859 60.177734 L 289.08398 149.40039 C 305.16293 154.40028 319.68826 162.95183 331.75195 174.125 L 369.05859 60.177734 z M 60.177734 142.94141 L 149.38672 222.9043 C 154.3875 206.82734 162.93631 192.30482 174.10742 180.24219 L 60.177734 142.94141 z M 451.82227 142.94141 L 337.875 180.24805 C 349.04401 192.31566 357.58523 206.8483 362.58203 222.93164 L 451.82227 142.94141 z M 256 159.41797 C 202.52366 159.41797 159.35742 202.58306 159.35742 256 C 159.35742 309.41693 202.52366 352.58203 256 352.58203 C 309.47634 352.58203 352.64258 309.41693 352.64258 256 C 352.64258 202.58306 309.47634 159.41797 256 159.41797 z M 364.83398 231.3457 C 366.5761 239.04568 367.52909 247.04209 367.58398 255.25 A 7.4894396 7.5105449 0 0 1 367.62305 256 A 7.4894396 7.5105449 0 0 1 367.58398 256.76367 C 367.52808 264.9665 366.57507 272.9588 364.83398 280.6543 L 482.11719 256 L 364.83398 231.3457 z M 147.125 231.35352 L 29.882812 256 L 147.125 280.64648 C 145.3306 272.71483 144.37891 264.46776 144.37891 256 C 144.37891 247.5329 145.33087 239.28455 147.125 231.35352 z M 362.58203 289.06836 C 357.58504 305.15211 349.04438 319.68401 337.875 331.75195 L 451.82227 369.05859 L 362.58203 289.06836 z M 149.38672 289.0957 L 60.177734 369.05859 L 174.10742 331.75781 C 162.93672 319.69538 154.38757 305.1721 149.38672 289.0957 z M 331.75195 337.875 C 319.68825 349.04843 305.16292 357.59761 289.08398 362.59766 L 369.05859 451.82227 L 331.75195 337.875 z M 180.24219 337.89062 L 142.94141 451.82227 L 222.91406 362.60156 C 206.83603 357.60411 192.30936 349.05813 180.24219 337.89062 z M 231.34961 364.85742 L 256 482.11719 L 280.65039 364.85742 C 272.71757 366.65246 264.46892 367.60352 256 367.60352 C 247.53224 367.60352 239.28256 366.65168 231.34961 364.85742 z "
     style="color:#000000;font-style:normal;font-variant:normal;font-weight:normal;font-stretch:normal;font-size:medium;line-height:normal;font-family:sans-serif;font-variant-ligatures:normal;font-variant-position:normal;font-variant-caps:normal;font-variant-numeric:normal;font-variant-alternates:normal;font-variant-east-asian:normal;font-feature-settings:normal;font-variation-settings:normal;text-indent:0;text-align:start;text-decoration:none;text-decoration-line:none;text-decoration-style:solid;text-decoration-color:#000000;letter-spacing:normal;word-spacing:normal;text-transform:none;writing-mode:lr-tb;direction:ltr;text-orientation:mixed;dominant-baseline:auto;baseline-shift:baseline;text-anchor:start;white-space:normal;shape-padding:0;shape-margin:0;inline-size:0;clip-rule:nonzero;display:inline;overflow:visible;visibility:visible;isolation:auto;mix-blend-mode:normal;color-interpolation:sRGB;color-interpolation-filters:linearRGB;solid-color:#000000;solid-opacity:1;vector-effect:none;fill:url(#radialGradient896);fill-opacity:1;fill-rule:evenodd;stroke:none;stroke-width:30;stroke-linecap:round;stroke-linejoin:round;stroke-miterlimit:4;stroke-dasharray:none;stroke-dashoffset:0;stroke-opacity:1;paint-order:stroke fill markers;color-rendering:auto;image-rendering:auto;shape-rendering:auto;text-rendering:auto;enable-background:accumulate;stop-color:#000000"
     id="path886" />
</svg>

<svg xmlns="http://www.w3.org/2000/svg" xmlns:xlink="http://www.w3.org/1999/xlink" width="512" height="512" viewBox="0 0 512 512"><title>Devine: Liturgy</title><defs><radialGradient xlink:href="#a" id="c" cx="256.001" cy="256" r="183.435" fx="256.001" fy="256" gradientTransform="matrix(1 0 0 .99977 0 .058)" gradientUnits="userSpaceOnUse"/><radialGradient xlink:href="#b" id="d" cx="256" cy="256" r="226.117" fx="256" fy="256" gradientUnits="userSpaceOnUse"/><linearGradient id="a"><stop offset="0" style="stop-color:#fde1fc;stop-opacity:1"/><stop offset="1" style="stop-color:#8e5d6f;stop-opacity:1"/></linearGradient><linearGradient id="b"><stop offset="0" style="stop-color:#8e5d6f;stop-opacity:1"/><stop offset=".065" style="stop-color:#8e5d6f;stop-opacity:1"/><stop offset="1" style="stop-color:#fde1fc;stop-opacity:1"/></linearGradient></defs><path d="M231.691 72.607a184 184 0 0 0-46.373 12.377l35.455 39.555zm48.618 0 10.916 51.93 35.455-39.555a184 184 0 0 0-46.371-12.375M143.24 109.293a185.8 185.8 0 0 0-33.957 33.941l50.48 16.528zm225.522.002-16.524 50.467 50.479-16.528a185.8 185.8 0 0 0-33.955-33.94m58.279 76.004-39.578 35.476 51.973 10.926A183.8 183.8 0 0 0 427.04 185.3m-342.08.002a183.8 183.8 0 0 0-12.395 46.398l51.97-10.924zm354.475 94.998-51.973 10.926L427.04 326.7a183.8 183.8 0 0 0 12.395-46.402m-366.87.002a183.8 183.8 0 0 0 12.395 46.398l39.576-35.472zm87.196 71.935-50.479 16.528a185.8 185.8 0 0 0 33.955 33.941zm192.476.002 16.524 50.467a185.8 185.8 0 0 0 33.955-33.941zm-61.013 35.225-10.916 51.93a184 184 0 0 0 46.37-12.375zm-70.45.002-35.455 39.553a184 184 0 0 0 46.371 12.375z" style="color:#000;font-style:normal;font-variant:normal;font-weight:400;font-stretch:normal;font-size:medium;line-height:normal;font-family:sans-serif;font-variant-ligatures:normal;font-variant-position:normal;font-variant-caps:normal;font-variant-numeric:normal;font-variant-alternates:normal;font-variant-east-asian:normal;font-feature-settings:normal;font-variation-settings:normal;text-indent:0;text-align:start;text-decoration:none;text-decoration-line:none;text-decoration-style:solid;text-decoration-color:#000;letter-spacing:normal;word-spacing:normal;text-transform:none;writing-mode:lr-tb;direction:ltr;text-orientation:mixed;dominant-baseline:auto;baseline-shift:baseline;text-anchor:start;white-space:normal;shape-padding:0;shape-margin:0;inline-size:0;clip-rule:nonzero;display:inline;overflow:visible;visibility:visible;isolation:auto;mix-blend-mode:normal;color-interpolation:sRGB;color-interpolation-filters:linearRGB;solid-color:#000;solid-opacity:1;vector-effect:none;fill:url(#c);fill-opacity:1;fill-rule:evenodd;stroke:none;stroke-width:15.0001;stroke-linecap:round;stroke-linejoin:round;stroke-miterlimit:4;stroke-dasharray:none;stroke-dashoffset:0;stroke-opacity:1;paint-order:normal;color-rendering:auto;image-rendering:auto;shape-rendering:auto;text-rendering:auto;stop-color:#000"/><path d="m256 29.883-24.65 117.26a111.6 111.6 0 0 1 24.65-2.747c8.469 0 16.718.954 24.65 2.749zM142.941 60.178l37.301 113.931c12.068-11.167 26.595-19.711 42.674-24.709zm226.118 0L289.084 149.4c16.079 5 30.604 13.552 42.668 24.725zM60.178 142.94l89.209 79.963c5-16.077 13.55-30.6 24.72-42.662zm391.644 0-113.947 37.307c11.169 12.068 19.71 26.6 24.707 42.684zM256 159.418c-53.476 0-96.643 43.165-96.643 96.582s43.167 96.582 96.643 96.582 96.643-43.165 96.643-96.582-43.167-96.582-96.643-96.582m108.834 71.928a111.6 111.6 0 0 1 2.75 23.904 7.49 7.51 0 0 1 .039.75 7.49 7.51 0 0 1-.039.764 111.6 111.6 0 0 1-2.75 23.89L482.117 256zm-217.709.008L29.883 256l117.242 24.646A111.6 111.6 0 0 1 144.379 256c0-8.467.952-16.715 2.746-24.646m215.457 57.714c-4.997 16.084-13.538 30.616-24.707 42.684l113.947 37.307zm-213.195.028-89.21 79.963 113.93-37.301c-11.17-12.063-19.72-26.586-24.72-42.662m182.365 48.779c-12.064 11.173-26.59 19.723-42.668 24.723l79.975 89.224zm-151.51.016-37.3 113.931 79.972-89.22c-16.078-4.998-30.605-13.544-42.672-24.711m51.108 26.966L256 482.117l24.65-117.26a111.6 111.6 0 0 1-24.65 2.747c-8.468 0-16.717-.952-24.65-2.747" style="color:#000;font-style:normal;font-variant:normal;font-weight:400;font-stretch:normal;font-size:medium;line-height:normal;font-family:sans-serif;font-variant-ligatures:normal;font-variant-position:normal;font-variant-caps:normal;font-variant-numeric:normal;font-variant-alternates:normal;font-variant-east-asian:normal;font-feature-settings:normal;font-variation-settings:normal;text-indent:0;text-align:start;text-decoration:none;text-decoration-line:none;text-decoration-style:solid;text-decoration-color:#000;letter-spacing:normal;word-spacing:normal;text-transform:none;writing-mode:lr-tb;direction:ltr;text-orientation:mixed;dominant-baseline:auto;baseline-shift:baseline;text-anchor:start;white-space:normal;shape-padding:0;shape-margin:0;inline-size:0;clip-rule:nonzero;display:inline;overflow:visible;visibility:visible;isolation:auto;mix-blend-mode:normal;color-interpolation:sRGB;color-interpolation-filters:linearRGB;solid-color:#000;solid-opacity:1;vector-effect:none;fill:url(#d);fill-opacity:1;fill-rule:evenodd;stroke:none;stroke-width:30;stroke-linecap:round;stroke-linejoin:round;stroke-miterlimit:4;stroke-dasharray:none;stroke-dashoffset:0;stroke-opacity:1;paint-order:stroke fill markers;color-rendering:auto;image-rendering:auto;shape-rendering:auto;text-rendering:auto;stop-color:#000"/></svg>
